X:9
T:Lord Dundee's Lamentation kill'd at the Battle of Killiecrankie
Z:Jack Campin, http://www.campin.me.uk/
F:Jack Campin's Nine-Note Tunebook
% last edit 03-02-2013
B:Daniel Dow, Ancient Scottish Music, 1783
M:9/8
L:1/8
Q:3/8=50
K:DMin
A3  AGG  A2D|F3  AGF  TE2D |
D2E GED  DCC|C2D EDD  TD2C |
C2D F>GF Fcc|c2c d>cA TA2G |
F3  FGG  cAA|A2G AGF  TE2D|]

